assets/svg/email.svg

<svg width="48px" height="48px" version="1.1" viewBox="0 0 48 48" xmlns="http://www.w3.org/2000/svg"><g><path d="m6.75 40.5h35.8c-0.0494-6.46-0.369-19.7-0.408-26l-18.1 13.3-19.6-14.7z" fill="#eee"/><path d="m42.5 9.5h-37c-1.93 0-3.5-0.434-3.5 1.5v26c0 1.93 1.57 3.5 3.5 3.5h1.5v-28.5h34v28.5h1.5c1.93 0 3.5-1.57 3.5-3.5v-26c0-1.93-1.57-1.5-3.5-1.5z" fill="#9957b5"/><path d="m42.5 7.5h-37c-1.93 0-3.5 1.54-3.5 3.5 0 1.21 1.52 2.26 1.52 2.26l20.5 14.5 20.5-14.5s1.52-1.05 1.52-2.26c0-1.96-1.57-3.5-3.5-3.5z" fill="#f5f5f5"/><path d="m43.2 7.58-19.2 13.4-19.2-13.4c-1.57 0.336-2.75 1.71-2.75 3.42 0 1.21 1.52 2.26 1.52 2.26l20.5 14.5 20.5-14.5s1.52-1.05 1.52-2.26c0-1.7-1.18-3.08-2.75-3.42z" fill="#9957b5"/></g></svg>

<svg width="48" height="48" xmlns="http://www.w3.org/2000/svg"><path d="M6.75 40.5h35.8c-.05-6.46-.369-19.7-.408-26l-18.1 13.3-19.6-14.7z" fill="#eee"/><path d="M42.5 9.5h-37C3.57 9.5 2 9.066 2 11v26c0 1.93 1.57 3.5 3.5 3.5H7V12h34v28.5h1.5c1.93 0 3.5-1.57 3.5-3.5V11c0-1.93-1.57-1.5-3.5-1.5z" fill="#9957b5"/><path d="M42.5 7.5h-37C3.57 7.5 2 9.04 2 11c0 1.21 1.52 2.26 1.52 2.26l20.5 14.5 20.5-14.5s1.52-1.05 1.52-2.26c0-1.96-1.57-3.5-3.5-3.5z" fill="#f5f5f5"/><path d="M43.2 7.58 24 20.98 4.8 7.58A3.47 3.47 0 0 0 2.05 11c0 1.21 1.52 2.26 1.52 2.26l20.5 14.5 20.5-14.5s1.52-1.05 1.52-2.26c0-1.7-1.18-3.08-2.75-3.42z" fill="#9957b5"/></svg>
